build/assets/img/icons/webresources.svg

<svg height="128" viewBox="0 0 128 128" width="128" xmlns="http://www.w3.org/2000/svg"><path d="m105.2 105.3c-22.6 22.6-59.3 22.6-81.9 0-22.6-22.7-22.6-59.3 0-82 22.6-22.6 59.3-22.6 81.9 0 22.7 22.7 22.7 59.3 0 82z" fill="#78909c"/><path d="m64.3 123.7c-15.9 0-30.8-6.2-42-17.4-23.2-23.2-23.2-60.9 0-84.1 11.2-11.2 26.1-17.3 42-17.3s30.8 6.2 42 17.4c23.2 23.2 23.2 60.9 0 84.1-11.2 11.1-26.1 17.3-42 17.3zm0-115.8c-15.1 0-29.2 5.9-39.9 16.5-22 22-22 57.8 0 79.8 10.7 10.7 24.8 16.5 39.9 16.5s29.2-5.9 39.9-16.5c22-22 22-57.8 0-79.8-10.7-10.7-24.8-16.5-39.9-16.5z" fill="#37474f"/><path d="m121.6 72.8c-3.1 20.8-31.2 33.9-62.9 29.2-31.6-4.7-54.8-25.4-51.7-46.2s31.2-33.9 62.9-29.2c31.6 4.7 54.8 25.4 51.7 46.2z" fill="#fff"/><path d="m71.4 104.4c-4.3 0-8.6-.3-13-1-32.4-4.8-56.2-26.3-53-47.9 2.7-18.5 23.9-31.4 51.6-31.4 4.3 0 8.7.3 13 1 15.6 2.3 29.7 8.5 39.7 17.4 10.2 9.1 14.9 19.9 13.3 30.5-2.7 18.5-23.9 31.4-51.6 31.4zm-14.3-77.2c-25.7 0-46.2 12.1-48.6 28.8-3 20 19.7 39.9 50.4 44.5 4.2.6 8.4.9 12.5.9 25.7 0 46.2-12.1 48.6-28.9 1.4-9.6-3-19.4-12.3-27.8-9.6-8.5-23.1-14.4-38.1-16.7-4.1-.5-8.4-.8-12.5-.8z" fill="#37474f"/><path d="m94.5 94.5c-22.6 22.6-54.5 27.4-71.2 10.7-16.7-16.6-11.9-48.5 10.8-71.1 22.6-22.6 54.5-27.5 71.2-10.8 16.6 16.7 11.8 48.6-10.8 71.2z" fill="#ffab00"/><path d="m49.2 116.7c-10.8 0-20.2-3.6-27-10.4-17.2-17.2-12.3-50.1 10.8-73.3 13.2-13.2 30.6-21.1 46.4-21.1 10.8 0 20.2 3.6 27 10.4 17.2 17.3 12.4 50.1-10.8 73.3-13.3 13.2-30.6 21.1-46.4 21.1zm30.2-101.8c-15 0-31.5 7.6-44.2 20.3-22 22-26.8 53-10.7 69.1 6.2 6.2 14.8 9.5 24.8 9.5 15 0 31.5-7.6 44.2-20.2 22-22 26.8-53 10.7-69.1-6.2-6.3-14.8-9.6-24.8-9.6z" fill="#37474f"/><path d="m72.1 72.1c-22.6 22.6-44.4 37.5-48.7 33.2-4.4-4.3 10.5-26.1 33.1-48.8 22.6-22.6 44.4-37.5 48.7-33.2s-10.5 26.1-33.1 48.8z" fill="#ffecb3"/><g fill="#37474f"><path d="m25.5 107.5c-1.4 0-2.5-.4-3.2-1.2-6.5-6.5 16.3-34 33.2-50.9 20.2-20.2 39.8-34.4 47.6-34.4 1.4 0 2.4.4 3.2 1.2 6.5 6.5-16.3 34-33.2 50.9-20.2 20.3-39.8 34.4-47.6 34.4zm77.6-83.4c-5.8 0-23.7 11.7-45.5 33.5-24.4 24.4-35.9 43.9-33.2 46.6.2.2.7.3 1.1.3 5.8 0 23.7-11.7 45.5-33.5 24.3-24.4 35.9-43.9 33.2-46.6-.2-.3-.7-.3-1.1-.3z"/><path d="m83.8 114.8c-15.6 0-33.4-8.4-47.5-22.5-23.2-23.2-29.4-54.6-14-70 5.6-5.6 13.4-8.5 22.5-8.5 15.6 0 33.4 8.4 47.5 22.5 23.2 23.2 29.4 54.6 14 70-5.6 5.6-13.4 8.5-22.5 8.5zm-39-98c-8.4 0-15.4 2.6-20.4 7.6-14.3 14.3-8 43.8 14 65.8 13.6 13.6 30.5 21.7 45.3 21.7 8.4 0 15.4-2.6 20.4-7.6 14.3-14.3 8-43.8-14-65.8-13.5-13.6-30.4-21.7-45.3-21.7z"/><path d="m6.5 62.8h115.6v3h-115.6z" transform="matrix(.70720551 .70700804 -.70700804 .70720551 64.283547 -26.628861)"/><g><path d="m84 44.6c-.6-.6-.6-1.6 0-2.2s1.6-.6 2.2 0 .6 1.6 0 2.2-1.6.6-2.2 0z"/><path d="m85.1 45.6c-.6 0-1.1-.2-1.5-.6-.8-.8-.8-2.1 0-2.9s2.1-.8 2.9 0 .8 2.1 0 2.9c-.4.3-.9.6-1.4.6zm0-3.1c-.3 0-.6.1-.8.3-.4.4-.4 1.1 0 1.5s1.1.4 1.5 0 .4-1.1 0-1.5c-.2-.2-.4-.3-.7-.3zm-8.8 9.8c-.6-.6-.6-1.6 0-2.2s1.6-.6 2.2 0 .6 1.6 0 2.2-1.6.6-2.2 0z"/><path d="m77.4 53.2c-.6 0-1.1-.2-1.5-.6s-.6-.9-.6-1.4c0-.6.2-1.1.6-1.4.8-.8 2.1-.8 2.9 0s.8 2.1 0 2.9c-.3.3-.8.5-1.4.5zm0-3.1c-.3 0-.6.1-.8.3s-.3.5-.3.7c0 .3.1.5.3.7.4.4 1.1.4 1.5 0s.4-1.1 0-1.5c-.1-.1-.4-.2-.7-.2z"/><path d="m68.6 60c-.6-.6-.6-1.6 0-2.2s1.6-.6 2.2 0 .6 1.6 0 2.2-1.6.6-2.2 0z"/><path d="m69.7 60.9c-.6 0-1.1-.2-1.5-.6s-.6-.9-.6-1.5c0-.5.2-1.1.6-1.4.8-.8 2.1-.8 2.9 0s.8 2.1 0 2.9c-.3.4-.8.6-1.4.6zm0-3.1c-.3 0-.6.1-.8.3s-.3.5-.3.7c0 .3.1.6.3.8.4.4 1.1.4 1.5 0s.4-1.1 0-1.5c-.2-.2-.4-.3-.7-.3z"/></g></g></svg>

<?xml version="1.0" encoding="utf-8"?>
<!-- Generator: Adobe Illustrator 16.0.0, SVG Export Plug-In . SVG Version: 6.00 Build 0)  -->
<!DOCTYPE svg PUBLIC "-//W3C//DTD SVG 1.1//EN" "http://www.w3.org/Graphics/SVG/1.1/DTD/svg11.dtd">
<svg version="1.1" id="Layer_1" xmlns="http://www.w3.org/2000/svg" xmlns:xlink="http://www.w3.org/1999/xlink" x="0px" y="0px"
	 width="128px" height="128px" viewBox="0 0 128 128" enable-background="new 0 0 128 128" xml:space="preserve">
<g>
	<g>
		<path fill="#78909C" d="M105.2,105.3c-22.6,22.6-59.3,22.6-81.9,0C0.7,82.6,0.7,46,23.3,23.3c22.6-22.6,59.3-22.6,81.9,0
			C127.9,46,127.9,82.6,105.2,105.3z"/>
		<path fill="#37474F" d="M64.3,123.7c-15.9,0-30.8-6.2-42-17.4c-23.2-23.2-23.2-60.9,0-84.1C33.5,11,48.4,4.9,64.3,4.9
			c15.9,0,30.8,6.2,42,17.4c23.2,23.2,23.2,60.9,0,84.1C95.1,117.5,80.2,123.7,64.3,123.7z M64.3,7.9c-15.1,0-29.2,5.9-39.9,16.5
			c-22,22-22,57.8,0,79.8c10.7,10.7,24.8,16.5,39.9,16.5c15.1,0,29.2-5.9,39.9-16.5c22-22,22-57.8,0-79.8
			C93.5,13.7,79.4,7.9,64.3,7.9z"/>
	</g>
	<g>
		<path fill="#FFFFFF" d="M121.6,72.8c-3.1,20.8-31.2,33.9-62.9,29.2C27.1,97.3,3.9,76.6,7,55.8C10.1,35,38.2,21.9,69.9,26.6
			C101.5,31.3,124.7,52,121.6,72.8z"/>
		<path fill="#37474F" d="M71.4,104.4c-4.3,0-8.6-0.3-13-1c-32.4-4.8-56.2-26.3-53-47.9c2.7-18.5,23.9-31.4,51.6-31.4
			c4.3,0,8.7,0.3,13,1c15.6,2.3,29.7,8.5,39.7,17.4c10.2,9.1,14.9,19.9,13.3,30.5C120.3,91.5,99.1,104.4,71.4,104.4z M57.1,27.2
			C31.4,27.2,10.9,39.3,8.5,56c-3,20,19.7,39.9,50.4,44.5c4.2,0.6,8.4,0.9,12.5,0.9c25.7,0,46.2-12.1,48.6-28.9
			c1.4-9.6-3-19.4-12.3-27.8c-9.6-8.5-23.1-14.4-38.1-16.7C65.5,27.5,61.2,27.2,57.1,27.2z"/>
	</g>
	<g>
		<g>
			<g>
				<path fill="#FFAB00" d="M94.5,94.5c-22.6,22.6-54.5,27.4-71.2,10.7C6.6,88.6,11.4,56.7,34.1,34.1c22.6-22.6,54.5-27.5,71.2-10.8
					C121.9,40,117.1,71.9,94.5,94.5z"/>
				<path fill="#37474F" d="M49.2,116.7c-10.8,0-20.2-3.6-27-10.4C5,89.1,9.9,56.2,33,33c13.2-13.2,30.6-21.1,46.4-21.1
					c10.8,0,20.2,3.6,27,10.4c17.2,17.3,12.4,50.1-10.8,73.3C82.3,108.8,65,116.7,49.2,116.7z M79.4,14.9c-15,0-31.5,7.6-44.2,20.3
					c-22,22-26.8,53-10.7,69.1c6.2,6.2,14.8,9.5,24.8,9.5c15,0,31.5-7.6,44.2-20.2c22-22,26.8-53,10.7-69.1
					C98,18.2,89.4,14.9,79.4,14.9z"/>
			</g>
			<g>
				<path fill="#FFECB3" d="M72.1,72.1c-22.6,22.6-44.4,37.5-48.7,33.2C19,101,33.9,79.2,56.5,56.5c22.6-22.6,44.4-37.5,48.7-33.2
					C109.5,27.6,94.7,49.4,72.1,72.1z"/>
				<path fill="#37474F" d="M25.5,107.5c-1.4,0-2.5-0.4-3.2-1.2c-6.5-6.5,16.3-34,33.2-50.9c20.2-20.2,39.8-34.4,47.6-34.4
					c1.4,0,2.4,0.4,3.2,1.2c6.5,6.5-16.3,34-33.2,50.9C52.9,93.4,33.3,107.5,25.5,107.5z M103.1,24.1c-5.8,0-23.7,11.7-45.5,33.5
					c-24.4,24.4-35.9,43.9-33.2,46.6c0.2,0.2,0.7,0.3,1.1,0.3c5.8,0,23.7-11.7,45.5-33.5c24.3-24.4,35.9-43.9,33.2-46.6
					C104,24.1,103.5,24.1,103.1,24.1z"/>
			</g>
			<g>
				<path fill="#37474F" d="M83.8,114.8c-15.6,0-33.4-8.4-47.5-22.5c-23.2-23.2-29.4-54.6-14-70c5.6-5.6,13.4-8.5,22.5-8.5
					c15.6,0,33.4,8.4,47.5,22.5c23.2,23.2,29.4,54.6,14,70C100.7,111.9,92.9,114.8,83.8,114.8z M44.8,16.8c-8.4,0-15.4,2.6-20.4,7.6
					c-14.3,14.3-8,43.8,14,65.8c13.6,13.6,30.5,21.7,45.3,21.7c8.4,0,15.4-2.6,20.4-7.6c14.3-14.3,8-43.8-14-65.8
					C76.6,24.9,59.7,16.8,44.8,16.8z"/>
			</g>
			<g>
				
					<rect x="6.5" y="62.8" transform="matrix(0.7072 0.707 -0.707 0.7072 64.2837 -26.6278)" fill="#37474F" width="115.6" height="3"/>
			</g>
		</g>
		<g>
			<g>
				<path fill="#37474F" d="M84,44.6c-0.6-0.6-0.6-1.6,0-2.2c0.6-0.6,1.6-0.6,2.2,0c0.6,0.6,0.6,1.6,0,2.2
					C85.6,45.2,84.6,45.2,84,44.6z"/>
				<path fill="#37474F" d="M85.1,45.6c-0.6,0-1.1-0.2-1.5-0.6c-0.8-0.8-0.8-2.1,0-2.9c0.8-0.8,2.1-0.8,2.9,0c0.8,0.8,0.8,2.1,0,2.9
					C86.1,45.3,85.6,45.6,85.1,45.6z M85.1,42.5c-0.3,0-0.6,0.1-0.8,0.3c-0.4,0.4-0.4,1.1,0,1.5c0.4,0.4,1.1,0.4,1.5,0
					c0.4-0.4,0.4-1.1,0-1.5C85.6,42.6,85.4,42.5,85.1,42.5z"/>
			</g>
			<g>
				<path fill="#37474F" d="M76.3,52.3c-0.6-0.6-0.6-1.6,0-2.2c0.6-0.6,1.6-0.6,2.2,0c0.6,0.6,0.6,1.6,0,2.2
					C77.9,52.9,76.9,52.9,76.3,52.3z"/>
				<path fill="#37474F" d="M77.4,53.2c-0.6,0-1.1-0.2-1.5-0.6c-0.4-0.4-0.6-0.9-0.6-1.4c0-0.6,0.2-1.1,0.6-1.4
					c0.8-0.8,2.1-0.8,2.9,0c0.8,0.8,0.8,2.1,0,2.9C78.5,53,78,53.2,77.4,53.2z M77.4,50.1c-0.3,0-0.6,0.1-0.8,0.3
					c-0.2,0.2-0.3,0.5-0.3,0.7c0,0.3,0.1,0.5,0.3,0.7c0.4,0.4,1.1,0.4,1.5,0c0.4-0.4,0.4-1.1,0-1.5C78,50.2,77.7,50.1,77.4,50.1z"/>
			</g>
			<g>
				<path fill="#37474F" d="M68.6,60c-0.6-0.6-0.6-1.6,0-2.2c0.6-0.6,1.6-0.6,2.2,0c0.6,0.6,0.6,1.6,0,2.2
					C70.2,60.6,69.2,60.6,68.6,60z"/>
				<path fill="#37474F" d="M69.7,60.9c-0.6,0-1.1-0.2-1.5-0.6c-0.4-0.4-0.6-0.9-0.6-1.5c0-0.5,0.2-1.1,0.6-1.4
					c0.8-0.8,2.1-0.8,2.9,0c0.8,0.8,0.8,2.1,0,2.9C70.8,60.7,70.3,60.9,69.7,60.9z M69.7,57.8c-0.3,0-0.6,0.1-0.8,0.3
					c-0.2,0.2-0.3,0.5-0.3,0.7c0,0.3,0.1,0.6,0.3,0.8c0.4,0.4,1.1,0.4,1.5,0c0.4-0.4,0.4-1.1,0-1.5C70.2,57.9,70,57.8,69.7,57.8z"/>
			</g>
		</g>
	</g>
</g>
</svg>
